X: 126
T:Prince Eugene's March. HA.125
M:C
L:1/8
Q:100
S:Henry Atkinson's original MS,Hartburn,N'umberland,1694.
O:England
A:Hartburn,Northumberland
N:Prince Eugene of Savoy,1663-1736, Field Marshal and Commander of the
N:Austrian Army in the wars against France in late 17th - early 18thC.
N:Big pal of the Duke of Marlborough, Queen Ann's C-in-C  .There is
N:tablature above the tune that I don't understand and any way can't
N:represent. cf Walsh, Musica Bellicosa,1733..CGP.
H:1/8
Z:vmp.Chris Partington.Jan.2004
K:D
"Written for two parts"[F4A4] A4|[F3d3]e defg|a2f2[d2f2]gf|edef e2A2|!
[F4A4] A4|[F3d3]e defg|fga2^g3a|a8||!
ee/e/ ee ee e2|[df][d/f/][d/f/] [df][df] [df][df] [d2f2]|\
aa/g/ ff/e/ [df][df] AA|a/b/a/g/ f/g/f/e/ [df][df] AA|!
DD/D/ D[DF] DD/D/ Df/g/|\
ad/e/ f/e/f/g/ ad/e/ f/e/f/g/|ag/f/ e>d d4|]
